X: 1
T: Sustainers
C: \251 2021 David A. Kaynor
%D:2021
M: 6/8
L: 1/8
K: F
"^A"|:\
"F"F2G AGF | Acd c2c | "Bb"d2f gfd | "F"c3-c Bc || "Bb"d2f "Gm"gfd | "F"c2f "Dm"cAF  |\
[1 "Gm"G2c "G"dc=B | "C"c2A BAG :|2 "Gm"GAB "C7"ABG | "F"F3ABc |]
"^B"|:\
"Bb"d2b bfd | "F"c2a afc | "Gm"B2g "C7"ecB | "F"A3 f2A || "Bb"B2g "C7"ecB | "F"A3 "Dm"fcA |\
[1 "Gm"G2c "G"dc=B | "C"c3ABc :|2 "Gm"GAB "C7"ABG | "F"F3F3 |]
